Origami/64x64/apps/diffuse.svg

<svg width="64" height="64" version="1" xmlns="http://www.w3.org/2000/svg">
 <path d="m6.2143847 32.006802c-0.3951371 0.94385-0.2079669 2.06967 0.5623103 2.839547l23.390272 23.390273c1.017838 1.017837 2.661576 1.017837 3.679414 0l23.390272-23.390273c0.769877-0.769877 0.957847-1.895697 0.56191-2.839547-0.12598 0.303952-0.31395 0.591906-0.56191 0.839866l-23.390272 23.390272c-1.017838 1.017838-2.661576 1.017838-3.679414 0l-23.390272-23.390272c-0.2489603-0.24796-0.4359305-0.535914-0.5631102-0.839866z" style="opacity:.2"/>
 <rect transform="matrix(.70710678 .70710678 -.70710678 .70710678 0 0)" x="26.11" y="-19.14" width="38.284" height="38.284" rx="2.6" ry="2.6" style="fill:#ffc35a"/>
 <path d="m32.005859 6.0078125l0.001953 0.0019531c-0.663893 0-1.329924 0.2565062-1.839843 0.765625l-23.390625 23.388671c-0.634791 0.634132-0.8672342 1.509662-0.7109376 2.326172 0.0975637-0.484905 0.3332866-0.948913 0.7109376-1.326172l23.390625-23.390624c0.509422-0.5086225 1.17464-0.7651257 1.83789-0.765625h0.001953c0.663251 4.993e-4 1.328469 0.2566029 1.837891 0.765625l23.390625 23.390624c0.377259 0.377259 0.613374 0.841267 0.710938 1.326172 0.156872-0.816731-0.076606-1.691839-0.710938-2.326172l-23.390625-23.390624c-0.509919-0.5095188-1.17595-0.765625-1.839844-0.765625z" style="fill:#ffffff;opacity:.2"/>
 <path d="m31.999044 18.999899v8.003325l-5.999044 5.980647 0.0182 0.0182h-0.0182v12.997929h3.999363v-11.940097l1.999681-2.057672v13.997769h3.999363v-26.999899z" style="fill:#2e2e2e"/>
</svg>

<svg xmlns="http://www.w3.org/2000/svg" width="64" height="64" version="1">
 <path style="opacity:0.2" d="m 6.2143847,32.006802 c -0.3951371,0.94385 -0.2079669,2.06967 0.5623103,2.839547 l 23.390272,23.390273 c 1.017838,1.017837 2.661576,1.017837 3.679414,0 L 57.236653,34.846349 c 0.769877,-0.769877 0.957847,-1.895697 0.56191,-2.839547 -0.12598,0.303952 -0.31395,0.591906 -0.56191,0.839866 L 33.846381,56.23694 c -1.017838,1.017838 -2.661576,1.017838 -3.679414,0 L 6.776695,32.846668 C 6.5277347,32.598708 6.3407645,32.310754 6.2135848,32.006802 Z"/>
 <rect style="fill:#ffc35a" width="38.284" height="38.284" x="26.11" y="-19.14" rx="2.6" ry="2.6" transform="matrix(0.70710678,0.70710678,-0.70710678,0.70710678,0,0)"/>
 <path style="opacity:0.2;fill:#ffffff" d="M 32.005859 6.0078125 L 32.007812 6.0097656 C 31.343919 6.0097656 30.677888 6.2662718 30.167969 6.7753906 L 6.7773438 30.164062 C 6.1425528 30.798194 5.9101096 31.673724 6.0664062 32.490234 C 6.1639699 32.005329 6.3996928 31.541321 6.7773438 31.164062 L 30.167969 7.7734375 C 30.677391 7.264815 31.342609 7.0083118 32.005859 7.0078125 L 32.007812 7.0078125 C 32.671063 7.0083118 33.336281 7.2644154 33.845703 7.7734375 L 57.236328 31.164062 C 57.613587 31.541321 57.849702 32.005329 57.947266 32.490234 C 58.104138 31.673503 57.87066 30.798395 57.236328 30.164062 L 33.845703 6.7734375 C 33.335784 6.2639187 32.669753 6.0078125 32.005859 6.0078125 z"/>
 <path style="fill:#2e2e2e" d="m 31.999044,18.999899 0,8.003325 L 26,32.983871 l 0.0182,0.0182 -0.0182,0 L 26,46 l 3.999363,0 0,-11.940097 1.999681,-2.057672 0,13.997769 3.999363,0 0,-26.999899 z"/>
</svg>
